build/system/KeyboardOutline.svg

<svg xmlns="http://www.w3.org/2000/svg" fill="none" viewBox="0 0 24 24" focusable="false"><path d="M0 0H24V24H0z"/><path fill="#74767B" fill-rule="evenodd" d="M6 5.59998C4.34315 5.59998 3 6.94312 3 8.59998L3 15.4C3 17.0568 4.34315 18.4 6 18.4L18 18.4C19.6569 18.4 21 17.0568 21 15.4L21 8.59998C21 6.94312 19.6569 5.59998 18 5.59998L6 5.59998ZM6 6.89998L18 6.89998C18.9389 6.89998 19.7 7.66109 19.7 8.59998L19.7 15.4C19.7 16.3389 18.9389 17.1 18 17.1L6 17.1C5.06112 17.1 4.3 16.3389 4.3 15.4L4.3 8.59998C4.3 7.66109 5.06112 6.89998 6 6.89998ZM6.64807 8.76214C6.28909 8.76214 5.99807 9.05315 5.99807 9.41214C5.99807 9.77112 6.28909 10.0621 6.64807 10.0621L7.34488 10.0621C7.70386 10.0621 7.99488 9.77112 7.99488 9.41214C7.99488 9.05315 7.70386 8.76214 7.34488 8.76214L6.64807 8.76214ZM9.98047 8.76214C9.62148 8.76214 9.33047 9.05315 9.33047 9.41214C9.33047 9.77112 9.62148 10.0621 9.98047 10.0621L10.6773 10.0621C11.0363 10.0621 11.3273 9.77112 11.3273 9.41214C11.3273 9.05315 11.0363 8.76214 10.6773 8.76214L9.98047 8.76214ZM13.3129 8.76214C12.9539 8.76214 12.6629 9.05315 12.6629 9.41214C12.6629 9.77112 12.9539 10.0621 13.3129 10.0621L14.0097 10.0621C14.3687 10.0621 14.6597 9.77112 14.6597 9.41214C14.6597 9.05315 14.3687 8.76214 14.0097 8.76214L13.3129 8.76214ZM16.6453 8.76214C16.2863 8.76214 15.9953 9.05315 15.9953 9.41214C15.9953 9.77112 16.2863 10.0621 16.6453 10.0621L17.3421 10.0621C17.7011 10.0621 17.9921 9.77112 17.9921 9.41214C17.9921 9.05315 17.7011 8.76214 17.3421 8.76214L16.6453 8.76214ZM6.64807 11.2621C6.28909 11.2621 5.99807 11.5532 5.99807 11.9121C5.99807 12.2711 6.28909 12.5621 6.64807 12.5621L7.34488 12.5621C7.70386 12.5621 7.99488 12.2711 7.99488 11.9121C7.99488 11.5532 7.70386 11.2621 7.34488 11.2621L6.64807 11.2621ZM9.33047 11.9121C9.33047 12.2711 9.62148 12.5621 9.98047 12.5621L10.6773 12.5621C11.0363 12.5621 11.3273 12.2711 11.3273 11.9121C11.3273 11.5532 11.0363 11.2621 10.6773 11.2621L9.98047 11.2621C9.62148 11.2621 9.33047 11.5532 9.33047 11.9121ZM13.3129 11.2621C12.9539 11.2621 12.6629 11.5532 12.6629 11.9121C12.6629 12.2711 12.9539 12.5621 13.3129 12.5621L14.0097 12.5621C14.3687 12.5621 14.6597 12.2711 14.6597 11.9121C14.6597 11.5532 14.3687 11.2621 14.0097 11.2621L13.3129 11.2621ZM15.9953 11.9121C15.9953 12.2711 16.2863 12.5621 16.6453 12.5621L17.3421 12.5621C17.7011 12.5621 17.9921 12.2711 17.9921 11.9121C17.9921 11.5532 17.7011 11.2621 17.3421 11.2621L16.6453 11.2621C16.2863 11.2621 15.9953 11.5532 15.9953 11.9121ZM9.14771 13.9378C8.78872 13.9378 8.49771 14.2288 8.49771 14.5878C8.49771 14.9468 8.78872 15.2378 9.14771 15.2378L14.8523 15.2378C15.2113 15.2378 15.5023 14.9468 15.5023 14.5878C15.5023 14.2288 15.2113 13.9378 14.8523 13.9378L9.14771 13.9378Z"/></svg>

<svg xmlns="http://www.w3.org/2000/svg" fill="none" viewBox="0 0 24 24" focusable="false"><path fill="#74767B" fill-rule="evenodd" d="M6 5.59c-1.66 0-3 1.35-3 3v6.81c0 1.65 1.34 3 3 3h12c1.65 0 3-1.35 3-3V8.59c0-1.65-1.35-3-3-3zm0 1.3h12c.93 0 1.7.77 1.7 1.7v6.81c0 .93-.77 1.7-1.7 1.7H6c-.94 0-1.71-.77-1.71-1.7V8.59c0-.93.77-1.7 1.71-1.7m.64 1.87c-.36 0-.65.29-.65.65s.29.65.65.65h.7c.36 0 .65-.29.65-.65s-.29-.65-.65-.65zm3.34 0c-.36 0-.65.29-.65.65s.29.65.65.65h.69c.36 0 .65-.29.65-.65s-.29-.65-.65-.65zm3.33 0c-.36 0-.65.29-.65.65s.29.65.65.65H14c.36 0 .65-.29.65-.65s-.29-.65-.65-.65zm3.33 0c-.36 0-.65.29-.65.65s.29.65.65.65h.7c.36 0 .65-.29.65-.65s-.29-.65-.65-.65zm-10 2.5c-.36 0-.65.29-.65.65s.29.65.65.65h.7c.36 0 .65-.29.65-.65s-.29-.65-.65-.65zm2.69.65c0 .36.29.65.65.65h.69c.36 0 .65-.29.65-.65s-.29-.65-.65-.65h-.69c-.36 0-.65.29-.65.65m3.98-.65c-.36 0-.65.29-.65.65s.29.65.65.65H14c.36 0 .65-.29.65-.65s-.29-.65-.65-.65zm2.68.65c0 .36.29.65.65.65h.7c.36 0 .65-.29.65-.65s-.29-.65-.65-.65h-.7c-.36 0-.65.29-.65.65m-6.85 2.02c-.36 0-.65.29-.65.65s.29.65.65.65h5.71c.36 0 .65-.29.65-.65s-.29-.65-.65-.65z"/></svg>
